!!!COM: Potskherashvili, Kote
!!!CDT: b. 1928
!!!OTL: National Anthem, Georgia
!!!ENC: Davis, Matthew J.
!!Vocal Line Only
**kern
*clefG2
*k[f#]
*X:
*M4/4
=1-
4.g
8a
4b
4dd
=2
4cc
4b
4a
4g
=3
4.ee
8dd
4cc
4ee
=4
4dd
4cc
4b
4cc
=5
4.dd
8cc
4b
4a
=6
2b
=7
4.cc
8b
4cc
4dd
=8
4cc
4b
4a
4g
=9
1a
=10
4.b
8cc
4dd
4ee
=11
4dd
4cc
4b
4cc
=12
1dd
=13
4.ee
8dd
4cc
4ee
=14
4dd
4ffn
4ee
4dd
=15
8.cc
16dd
8ee
8ffn
8ee
8dd
4cc
=16
1b
==|!
*-
